icons/glyphs/glyph-tex.svg

<?xml version="1.0" encoding="UTF-8" standalone="no"?><svg height="16" viewBox="0 0 4.2333333 4.2333333" width="16" xmlns="http://www.w3.org/2000/svg"><sodipodi:namedview/><metadata><rdf:RDF><cc:Work><dc:format>image/svg+xml</dc:format><dc:type/><dc:title/></cc:Work></rdf:RDF></metadata><path d="m0 .00000001v.55242105h4.2333333v-.55242105zm1.7425292.92035726.00568.16123043 1.1043254 1.4949991-1.1963095 1.4727785v.183968h2.5771081v-.9203573h-.1839683c0 .1840582.047449.2979933-.1095539.4082438-.1720948.1207421-.3990782.1441773-.5984131.1441773h-.9487792l.9203572-1.2888103-.9203572-1.4722614h.5405354c.383577 0 .92974-.035251 1.0815878.4258138.025956.078777.028.2277493.034623.3105753h.1839684v-.92035723zm-1.7425292.16123043v.7725626h1.7368448l-.5705078-.7725626zm0 1.0976074v.7725627h1.9657714l.3048909-.375171-.2935221-.3973917zm0 1.0976076v.7725626h1.0743529l.6273519-.7725626z" fill="#d0d0d0" stroke-width=".264583"/></svg>

<?xml version="1.0" encoding="UTF-8" standalone="no"?>
<!-- Created with Inkscape (http://www.inkscape.org/) -->

<svg
     xmlns:dc="http://purl.org/dc/elements/1.1/"
     xmlns:cc="http://creativecommons.org/ns#"
     xmlns:rdf="http://www.w3.org/1999/02/22-rdf-syntax-ns#"
     xmlns:svg="http://www.w3.org/2000/svg"
     xmlns="http://www.w3.org/2000/svg"
     xmlns:sodipodi="http://sodipodi.sourceforge.net/DTD/sodipodi-0.dtd"
     xmlns:inkscape="http://www.inkscape.org/namespaces/inkscape"
     width="16"
     height="16"
     viewBox="0 0 4.2333333 4.2333333"
     version="1.1"
     id="svg8"
     inkscape:version="0.92+devel (fa9b7f7a5b, 2017-07-19, custom)"
     sodipodi:docname="glyph-tex.svg">
    <defs
         id="defs2" />
    <sodipodi:namedview
         id="base"
         pagecolor="#002466"
         bordercolor="#ffffff"
         borderopacity="0.38039216"
         inkscape:pageopacity="1"
         inkscape:pageshadow="2"
         inkscape:zoom="24.193083"
         inkscape:cx="7.7220478"
         inkscape:cy="1.4238556"
         inkscape:document-units="px"
         inkscape:current-layer="svg8"
         inkscape:document-rotation="0"
         showgrid="false"
         inkscape:showpageshadow="false"
         borderlayer="true"
         inkscape:window-width="1920"
         inkscape:window-height="1051"
         inkscape:window-x="0"
         inkscape:window-y="0"
         inkscape:window-maximized="1"
         units="px"
         inkscape:object-paths="true"
         inkscape:snap-intersection-paths="true"
         inkscape:snap-page="true" />
    <metadata
         id="metadata5">
        <rdf:RDF>
            <cc:Work
                 rdf:about="">
                <dc:format>image/svg+xml</dc:format>
                <dc:type
                     rdf:resource="http://purl.org/dc/dcmitype/StillImage" />
                <dc:title></dc:title>
            </cc:Work>
        </rdf:RDF>
    </metadata>
    <path
         style="fill:#d0d0d0;stroke-width:0.26458332"
         d="M 0,1.4999999e-8 V 0.55242106 H 4.2333333 V 1.4999999e-8 Z M 1.7425292,0.92035727 1.7482092,1.0815877 2.8525346,2.5765868 1.6562251,4.0493653 v 0.183968 H 4.2333332 V 3.312976 H 4.0493649 c 0,0.1840582 0.047449,0.2979933 -0.1095539,0.4082438 C 3.7677162,3.8419619 3.5407328,3.8653971 3.3413979,3.8653971 H 2.3926187 L 3.3129759,2.5765868 2.3926187,1.1043254 h 0.5405354 c 0.383577,0 0.92974,-0.035251 1.0815878,0.4258138 0.025956,0.078777 0.028,0.2277493 0.034623,0.3105753 H 4.2333333 V 0.92035727 Z M 0,1.0815877 V 1.8541503 H 1.7368448 L 1.166337,1.0815877 Z M 0,2.1791951 V 2.9517578 H 1.9657714 L 2.2706623,2.5765868 1.9771402,2.1791951 Z M 0,3.2768027 V 4.0493653 H 1.0743529 L 1.7017048,3.2768027 Z"
         id="path1441"
         inkscape:connector-curvature="0"
         sodipodi:nodetypes="ccccccccccccccscccsccccccccccccccccccccc"
         inkscape:label="#" />
</svg>
